src/img/icons/address-book.svg

<svg fill="none" height="21" viewBox="0 0 19 21" width="19" xmlns="http://www.w3.org/2000/svg"><path d="m14 .5h-11.25c-1.40625 0-2.5 1.13281-2.5 2.5v15c0 1.4062 1.09375 2.5 2.5 2.5h11.25c1.3672 0 2.5-1.0938 2.5-2.5v-15c0-1.36719-1.1328-2.5-2.5-2.5zm-5.625 5c1.36719 0 2.5 1.13281 2.5 2.5 0 1.40625-1.13281 2.5-2.5 2.5-1.40625 0-2.5-1.09375-2.5-2.5 0-1.36719 1.09375-2.5 2.5-2.5zm3.75 10h-7.5c-.35156 0-.625-.2734-.625-.625 0-1.7188 1.36719-3.125 3.125-3.125h2.5c1.7188 0 3.125 1.4062 3.125 3.125 0 .3516-.3125.625-.625.625zm6.25-12.5h-.625v3.75h.625c.3125 0 .625-.27344.625-.625v-2.5c0-.3125-.3125-.625-.625-.625zm0 5h-.625v3.75h.625c.3125 0 .625-.2734.625-.625v-2.5c0-.3125-.3125-.625-.625-.625zm0 5h-.625v3.75h.625c.3125 0 .625-.2734.625-.625v-2.5c0-.3125-.3125-.625-.625-.625z" fill="#fff"/></svg>

<svg width="19" height="21" viewBox="0 0 19 21" fill="none" xmlns="http://www.w3.org/2000/svg">
<path d="M14 0.5H2.75C1.34375 0.5 0.25 1.63281 0.25 3V18C0.25 19.4062 1.34375 20.5 2.75 20.5H14C15.3672 20.5 16.5 19.4062 16.5 18V3C16.5 1.63281 15.3672 0.5 14 0.5ZM8.375 5.5C9.74219 5.5 10.875 6.63281 10.875 8C10.875 9.40625 9.74219 10.5 8.375 10.5C6.96875 10.5 5.875 9.40625 5.875 8C5.875 6.63281 6.96875 5.5 8.375 5.5ZM12.125 15.5H4.625C4.27344 15.5 4 15.2266 4 14.875C4 13.1562 5.36719 11.75 7.125 11.75H9.625C11.3438 11.75 12.75 13.1562 12.75 14.875C12.75 15.2266 12.4375 15.5 12.125 15.5ZM18.375 3H17.75V6.75H18.375C18.6875 6.75 19 6.47656 19 6.125V3.625C19 3.3125 18.6875 3 18.375 3ZM18.375 8H17.75V11.75H18.375C18.6875 11.75 19 11.4766 19 11.125V8.625C19 8.3125 18.6875 8 18.375 8ZM18.375 13H17.75V16.75H18.375C18.6875 16.75 19 16.4766 19 16.125V13.625C19 13.3125 18.6875 13 18.375 13Z" fill="white"/>
</svg>
